X: 39067
T: Swedish Rhapsody, The
R: polka
M: 2/4
K: Gmajor
G2 Bd g>ba>f|g2 f2 c4|e2 d2 F4|e2 d2 G4|
G2 Bd g>ba>f|g2 f2 c4|e2 d2 c2 F2|G4 G2:|
g2 g4 g2|f6 (3FAc|e2 e4 e2|d6 D2|
D2 F>A e2 d2|1 F4 F2 E2|D2 (3FGA e2 d2|1 B6:|
[2 F6 e>f|g2 (3fgf e2 f2|g6||
d2 B>d g4|e2 c>e a3 g|f2 d2 e2 f2|e>fe>d B2 c2|
d2 B>d g4|e2 c>e a3 g|f2 d2 e2 f2|g4 g2:|

